dist/img/sprites/logo.svg

<svg width="164" height="98" viewBox="0 0 164 98" fill="none" xmlns="http://www.w3.org/2000/svg">
  <path d="M69.8931 64.1572C65.1152 70.3806 57.5972 74.4035 49.1606 74.4035C35.6682 74.4035 24.5378 64.1186 23.1871 50.9845C23.0867 50.0888 23.0404 49.1854 23.0404 48.2742C23.0404 47.8727 23.0481 47.4789 23.0636 47.0851H19.2042C19.1887 47.4789 19.181 47.8727 19.181 48.2742C19.181 49.1854 19.2196 50.0965 19.3045 50.9845C20.6707 66.2805 33.5147 78.2642 49.1606 78.2642C59.8896 78.2642 69.2988 72.6275 74.5938 64.1572H69.8931ZM49.1606 18.2766C35.7068 18.2766 24.3217 27.1408 20.5318 39.3638H24.6073C28.2583 29.3259 37.8835 22.1373 49.1606 22.1373C58.2919 22.1373 66.3425 26.8474 71.0123 33.9665H75.5201C70.4489 24.6159 60.5457 18.2766 49.1606 18.2766Z" fill="#0D4376" />
  <path d="M81.4867 64.1572C75.9755 75.4767 64.6367 83.4375 51.4068 84.1324C50.7815 84.1633 50.1563 84.1788 49.5311 84.1788C48.8519 84.1788 48.1726 84.1633 47.5011 84.117C32.2334 83.2599 19.5052 72.7048 15.3989 58.5206H11.3928C15.6073 74.8668 30.0645 87.1052 47.5011 87.9854C48.1726 88.024 48.8519 88.0395 49.5311 88.0395C50.1563 88.0395 50.7815 88.024 51.4068 87.9931C66.852 87.275 79.9584 77.6619 85.7474 64.1572H81.4867ZM51.4068 9.28119C50.7815 9.25031 50.1563 9.23486 49.5311 9.23486C48.8519 9.23486 48.1726 9.25031 47.5011 9.28891C27.2085 10.3159 10.9606 26.7238 10.181 47.0852C10.1501 47.6025 10.1424 48.1198 10.1424 48.6372C10.1424 49.4247 10.1656 50.2046 10.2196 50.9845H14.079C14.0249 50.2046 14.0018 49.4247 14.0018 48.6372C14.0018 48.1198 14.0095 47.6025 14.0404 47.0852C14.8199 28.8781 29.3621 14.1766 47.5011 13.1573C48.1726 13.111 48.8519 13.0956 49.5311 13.0956C50.1563 13.0956 50.7815 13.111 51.4068 13.1419C64.9686 13.8523 76.539 22.1991 81.888 33.9665H86.0948C80.5064 20.0217 67.1684 10.0147 51.4068 9.28119Z" fill="#0D4376" />
  <path d="M51.4068 94.0698C50.604 94.1161 49.7936 94.1393 48.9831 94.1393C48.4891 94.1393 47.9951 94.1316 47.5011 94.1084C23.3106 93.3286 3.85937 73.3919 3.85937 49C3.85937 24.6081 23.3106 4.67145 47.5011 3.89159C47.9951 3.86842 48.4891 3.8607 48.9831 3.8607C49.7936 3.8607 50.604 3.88386 51.4068 3.93019C69.9704 4.91081 85.5931 17.1724 91.5365 33.9664H95.6197C89.5142 14.995 72.1548 1.06555 51.4068 0.0617712C50.604 0.0231642 49.7936 0 48.9831 0C48.4891 0 47.9951 0.0077214 47.5011 0.0231642C21.1339 0.803026 0 22.4307 0 49C0 75.5693 21.1339 97.197 47.5011 97.9768C47.9951 97.9923 48.4891 98 48.9831 98C49.7936 98 50.604 97.9768 51.4068 97.9382C72.1084 96.9344 89.437 83.0668 95.5811 64.1571H91.4902C85.5082 80.8894 69.9163 93.0892 51.4068 94.0698Z" fill="#0D4376" />
  <path d="M23.1871 50.9845H10.2196C10.1656 50.2046 10.1424 49.4248 10.1424 48.6372C10.1424 48.1199 10.1501 47.6025 10.181 47.0852H23.0636C23.0481 47.479 23.0404 47.8728 23.0404 48.2743C23.0404 49.1854 23.0867 50.0888 23.1871 50.9845Z" fill="#0D4376" />
  <path d="M51.4068 0.0617712V13.1418C50.7816 13.1109 50.1563 13.0955 49.5311 13.0955C48.8519 13.0955 48.1726 13.1109 47.5011 13.1573V0.0231642C47.9951 0.0077214 48.4891 0 48.9831 0C49.7936 0 50.604 0.0231642 51.4068 0.0617712Z" fill="#0D4376" />
  <path d="M51.4068 84.1324V97.9382C50.604 97.9769 49.7936 98 48.9831 98C48.4891 98 47.9951 97.9923 47.5011 97.9769V84.1169C48.1726 84.1633 48.8519 84.1787 49.5311 84.1787C50.1563 84.1787 50.7816 84.1633 51.4068 84.1324Z" fill="#0D4376" />
  <path d="M37.9145 54.9146L38.5397 53.6791C39.6203 54.737 41.5423 55.5168 43.5337 55.5168C46.3665 55.5168 47.5938 54.3277 47.5938 52.8375C47.5938 48.6834 38.2772 51.2392 38.2772 45.6412C38.2772 43.4174 40.0062 41.4871 43.8502 41.4871C45.556 41.4871 47.3313 41.9812 48.5432 42.8306L48.0028 44.1046C46.7061 43.263 45.1932 42.8537 43.8502 42.8537C41.0869 42.8537 39.8519 44.0892 39.8519 45.6026C39.8519 49.7567 49.1684 47.2472 49.1684 52.7603C49.1684 54.9841 47.3931 56.8913 43.526 56.8913C41.2567 56.8913 39.0337 56.0882 37.9067 54.9223L37.9145 54.9146Z" fill="#4C565D" />
  <path d="M50.6195 49.1853C50.6195 44.7764 53.9926 41.4871 58.5698 41.4871C63.147 41.4871 66.5047 44.7532 66.5047 49.1853C66.5047 53.6174 63.1084 56.8835 58.5698 56.8835C54.0312 56.8835 50.6195 53.5942 50.6195 49.1853ZM64.9069 49.1853C64.9069 45.5717 62.2053 42.9155 58.5775 42.9155C54.9497 42.9155 52.2018 45.5717 52.2018 49.1853C52.2018 52.7989 54.9266 55.4551 58.5775 55.4551C62.2285 55.4551 64.9069 52.7989 64.9069 49.1853Z" fill="#4C565D" />
  <path d="M69.3992 41.6184H70.9969V55.3702H79.4721V56.7524H69.3992V41.6184Z" fill="#4C565D" />
  <path d="M81.4404 41.6184H83.0382V56.7524H81.4404V41.6184Z" fill="#4C565D" />
  <path d="M87.2758 41.6184H93.4353C98.275 41.6184 101.54 44.7301 101.54 49.1854C101.54 53.6406 98.275 56.7524 93.4353 56.7524H87.2758V41.6184ZM93.3504 55.3702C97.3719 55.3702 99.9654 52.8222 99.9654 49.1854C99.9654 45.5486 97.3719 43.0005 93.3504 43.0005H88.8736V55.3702H93.3504Z" fill="#4C565D" />
  <path d="M110.1 49.1853C110.1 44.7532 113.473 41.4871 118.035 41.4871C120.243 41.4871 122.226 42.2206 123.569 43.6954L122.55 44.7146C121.315 43.4637 119.803 42.9232 118.074 42.9232C114.423 42.9232 111.675 45.6026 111.675 49.193C111.675 52.7835 114.423 55.4628 118.074 55.4628C119.803 55.4628 121.315 54.9223 122.55 53.6483L123.569 54.6675C122.226 56.1346 120.243 56.8913 118.012 56.8913C113.473 56.8913 110.1 53.6251 110.1 49.193V49.1853Z" fill="#4C565D" />
  <path d="M135.387 52.7063H126.958L125.144 56.7524H123.477L130.393 41.6184H131.967L138.883 56.7524H137.201L135.387 52.7063ZM134.8 51.4091L131.172 43.2785L127.544 51.4091H134.808H134.8Z" fill="#4C565D" />
  <path d="M139.254 54.9146L139.879 53.6791C140.96 54.737 142.882 55.5168 144.873 55.5168C147.706 55.5168 148.933 54.3277 148.933 52.8375C148.933 48.6834 139.617 51.2392 139.617 45.6412C139.617 43.4174 141.346 41.4871 145.189 41.4871C146.895 41.4871 148.671 41.9812 149.882 42.8306L149.342 44.1046C148.045 43.263 146.533 42.8537 145.189 42.8537C142.426 42.8537 141.191 44.0892 141.191 45.6026C141.191 49.7567 150.508 47.2472 150.508 52.7603C150.508 54.9841 148.732 56.8913 144.865 56.8913C142.596 56.8913 140.373 56.0882 139.246 54.9223L139.254 54.9146Z" fill="#4C565D" />
  <path d="M164 55.3702V56.7524H153.302V41.6184H163.676V43.0005H154.9V48.3824H162.726V49.7413H154.9V55.3625H164V55.3702Z" fill="#4C565D" />
  <path d="M106.835 64.1572H107.638V71.037H111.875V71.7319H106.835V64.1572Z" fill="#4C565D" />
  <path d="M118.182 69.7089H113.967L113.056 71.7319H112.223L115.681 64.1572H116.468L119.926 71.7319H119.085L118.174 69.7089H118.182ZM117.888 69.0603L116.074 64.9911L114.26 69.0603H117.896H117.888Z" fill="#4C565D" />
  <path d="M131.396 64.1572L128.841 71.7319H128L125.785 65.2768L123.554 71.7319H122.72L120.165 64.1572H120.983L123.168 70.6664L125.429 64.1572H126.178L128.409 70.6973L130.624 64.1572H131.388H131.396Z" fill="#4C565D" />
  <path d="M137.077 64.8522V67.8249H140.99V68.5198H137.077V71.7319H136.274V64.1572H141.461V64.8522H137.069H137.077Z" fill="#4C565D" />
  <path d="M143.337 64.1572H144.14V71.7319H143.337V64.1572Z" fill="#4C565D" />
  <path d="M151.982 71.7319L150.253 69.2997C150.06 69.3228 149.867 69.3306 149.651 69.3306H147.621V71.7319H146.818V64.1572H149.651C151.573 64.1572 152.746 65.1301 152.746 66.7516C152.746 67.9407 152.121 68.7746 151.017 69.1298L152.87 71.7242H151.997L151.982 71.7319ZM151.936 66.7593C151.936 65.5471 151.133 64.8522 149.62 64.8522H147.605V68.6511H149.62C151.133 68.6511 151.936 67.9484 151.936 66.7593Z" fill="#4C565D" />
  <path d="M162.703 64.1572V71.7319H161.939V65.6783L158.967 70.7745H158.589L155.617 65.717V71.7396H154.853V64.1649H155.509L158.798 69.7784L162.055 64.1649H162.711L162.703 64.1572Z" fill="#4C565D" />
</svg>

<svg width="164" height="98" viewBox="0 0 164 98" fill="none" xmlns="http://www.w3.org/2000/svg"><path d="M69.893 64.157c-4.778 6.224-12.296 10.246-20.732 10.246-13.493 0-24.623-10.284-25.974-23.419-.1-.895-.147-1.799-.147-2.71 0-.401.008-.795.024-1.189h-3.86a30.135 30.135 0 00.1 3.9c1.367 15.296 14.21 27.28 29.857 27.28 10.729 0 20.138-5.638 25.433-14.108h-4.7zm-20.732-45.88c-13.454 0-24.84 8.864-28.63 21.087h4.076c3.651-10.038 13.276-17.227 24.554-17.227 9.13 0 17.181 4.71 21.851 11.83h4.508c-5.071-9.351-14.974-15.69-26.36-15.69z" fill="#0D4376"/><path d="M81.487 64.157c-5.511 11.32-16.85 19.28-30.08 19.975-.625.031-1.25.047-1.876.047-.68 0-1.358-.016-2.03-.062C32.233 83.26 19.505 72.705 15.4 58.521h-4.006C15.607 74.867 30.065 87.105 47.5 87.985a37.997 37.997 0 003.906.008c15.445-.718 28.551-10.331 34.34-23.836h-4.26zM51.407 9.281a38.021 38.021 0 00-3.906.008c-20.292 1.027-36.54 17.435-37.32 37.796a33.92 33.92 0 00.039 3.9h3.859c-.054-.78-.077-1.56-.077-2.348 0-.517.007-1.035.038-1.552.78-18.207 15.322-32.908 33.461-33.928.672-.046 1.35-.061 2.03-.061.625 0 1.25.015 1.876.046 13.562.71 25.132 9.057 30.481 20.825h4.207C80.506 20.022 67.168 10.015 51.407 9.28z" fill="#0D4376"/><path d="M51.407 94.07c-.803.046-1.613.07-2.424.07-.494 0-.988-.008-1.482-.032C23.311 93.328 3.86 73.392 3.86 49c0-24.392 19.452-44.329 43.642-45.108.494-.024.988-.031 1.482-.031.81 0 1.621.023 2.424.07 18.563.98 34.186 13.241 40.13 30.035h4.083C89.514 14.995 72.155 1.066 51.407.062A47.428 47.428 0 0047.5.023C21.134.803 0 22.431 0 49c0 26.57 21.134 48.197 47.501 48.977a47.253 47.253 0 003.906-.039c20.701-1.004 38.03-14.871 44.174-33.78h-4.09c-5.984 16.73-21.576 28.93-40.085 29.912z" fill="#0D4376"/><path d="M23.187 50.984H10.22a33.923 33.923 0 01-.039-3.899h12.883c-.016.394-.024.788-.024 1.19 0 .91.047 1.814.147 2.71zM51.407.062v13.08a37.853 37.853 0 00-1.876-.046c-.68 0-1.358.015-2.03.061V.023a47.428 47.428 0 013.906.039zm0 84.07v13.806a47.56 47.56 0 01-3.906.039v-13.86c.672.046 1.35.062 2.03.062.625 0 1.25-.016 1.876-.047z" fill="#0D4376"/><path d="M37.914 54.915l.626-1.236c1.08 1.058 3.002 1.838 4.994 1.838 2.833 0 4.06-1.19 4.06-2.68 0-4.154-9.317-1.598-9.317-7.196 0-2.224 1.73-4.154 5.573-4.154 1.706 0 3.481.494 4.693 1.344l-.54 1.274c-1.297-.842-2.81-1.251-4.153-1.251-2.763 0-3.998 1.235-3.998 2.749 0 4.154 9.316 1.644 9.316 7.157 0 2.224-1.775 4.131-5.642 4.131-2.27 0-4.492-.803-5.62-1.969l.008-.007zm12.706-5.73c0-4.409 3.373-7.698 7.95-7.698s7.935 3.266 7.935 7.698-3.397 7.698-7.935 7.698c-4.539 0-7.95-3.289-7.95-7.698zm14.287 0c0-3.613-2.702-6.27-6.33-6.27-3.627 0-6.375 2.657-6.375 6.27 0 3.614 2.725 6.27 6.376 6.27 3.65 0 6.329-2.656 6.329-6.27zm4.493-7.567h1.597V55.37h8.475v1.382H69.4V41.618zm12.04 0h1.598v15.134H81.44V41.618zm5.836 0h6.16c4.839 0 8.104 3.112 8.104 7.567 0 4.456-3.265 7.567-8.105 7.567h-6.16V41.618zM93.35 55.37c4.022 0 6.615-2.548 6.615-6.185 0-3.636-2.593-6.184-6.615-6.184h-4.476v12.37h4.476zm16.75-6.185c0-4.432 3.373-7.698 7.935-7.698 2.208 0 4.191.734 5.534 2.208l-1.019 1.02c-1.235-1.251-2.747-1.792-4.476-1.792-3.651 0-6.399 2.68-6.399 6.27 0 3.59 2.748 6.27 6.399 6.27 1.729 0 3.241-.54 4.476-1.815l1.019 1.02c-1.343 1.467-3.326 2.223-5.557 2.223-4.539 0-7.912-3.266-7.912-7.698v-.008zm25.287 3.521h-8.429l-1.814 4.046h-1.667l6.916-15.134h1.574l6.916 15.134h-1.682l-1.814-4.046zm-.587-1.297l-3.628-8.13-3.628 8.13h7.264-.008zm4.454 3.506l.625-1.236c1.081 1.058 3.003 1.838 4.994 1.838 2.833 0 4.06-1.19 4.06-2.68 0-4.154-9.316-1.598-9.316-7.196 0-2.224 1.729-4.154 5.572-4.154 1.706 0 3.482.494 4.693 1.344l-.54 1.274c-1.297-.842-2.809-1.251-4.153-1.251-2.763 0-3.998 1.235-3.998 2.749 0 4.154 9.317 1.644 9.317 7.157 0 2.224-1.776 4.131-5.643 4.131-2.269 0-4.492-.803-5.619-1.969l.008-.007zM164 55.37v1.382h-10.698V41.618h10.374v1.383H154.9v5.381h7.826v1.36H154.9v5.62h9.1v.008zm-57.165 8.787h.803v6.88h4.237v.695h-5.04v-7.575zm11.347 5.552h-4.215l-.911 2.023h-.833l3.458-7.575h.787l3.458 7.575h-.841l-.911-2.023h.008zm-.294-.649l-1.814-4.069-1.814 4.07h3.636-.008zm13.508-4.903l-2.555 7.575H128l-2.215-6.455-2.231 6.455h-.834l-2.555-7.575h.818l2.185 6.51 2.261-6.51h.749l2.231 6.54 2.215-6.54h.772zm5.681.695v2.973h3.913v.695h-3.913v3.212h-.803v-7.575h5.187v.695h-4.392.008zm6.26-.695h.803v7.575h-.803v-7.575zm8.645 7.575l-1.729-2.432c-.193.023-.386.03-.602.03h-2.03v2.402h-.803v-7.575h2.833c1.922 0 3.095.973 3.095 2.595 0 1.189-.625 2.023-1.729 2.378l1.853 2.594h-.873l-.015.008zm-.046-4.973c0-1.212-.803-1.907-2.316-1.907h-2.015v3.8h2.015c1.513 0 2.316-.704 2.316-1.893zm10.767-2.602v7.575h-.764v-6.054l-2.972 5.097h-.378l-2.972-5.058v6.023h-.764v-7.575h.656l3.289 5.613 3.257-5.613h.656l-.008-.008z" fill="#4C565D"/></svg> 55.3702 99.9654 52.8222 99.9654 49.1854C99.9654 45.5486 97.3719 43.0005 93.3504 43.0005H88.8736V55.3702H93.3504Z" fill="#4C565D" />
  <path d="M110.1 49.1853C110.1 44.7532 113.473 41.4871 118.035 41.4871C120.243 41.4871 122.226 42.2206 123.569 43.6954L122.55 44.7146C121.315 43.4637 119.803 42.9232 118.074 42.9232C114.423 42.9232 111.675 45.6026 111.675 49.193C111.675 52.7835 114.423 55.4628 118.074 55.4628C119.803 55.4628 121.315 54.9223 122.55 53.6483L123.569 54.6675C122.226 56.1346 120.243 56.8913 118.012 56.8913C113.473 56.8913 110.1 53.6251 110.1 49.193V49.1853Z" fill="#4C565D" />
  <path d="M135.387 52.7063H126.958L125.144 56.7524H123.477L130.393 41.6184H131.967L138.883 56.7524H137.201L135.387 52.7063ZM134.8 51.4091L131.172 43.2785L127.544 51.4091H134.808H134.8Z" fill="#4C565D" />
  <path d="M139.254 54.9146L139.879 53.6791C140.96 54.737 142.882 55.5168 144.873 55.5168C147.706 55.5168 148.933 54.3277 148.933 52.8375C148.933 48.6834 139.617 51.2392 139.617 45.6412C139.617 43.4174 141.346 41.4871 145.189 41.4871C146.895 41.4871 148.671 41.9812 149.882 42.8306L149.342 44.1046C148.045 43.263 146.533 42.8537 145.189 42.8537C142.426 42.8537 141.191 44.0892 141.191 45.6026C141.191 49.7567 150.508 47.2472 150.508 52.7603C150.508 54.9841 148.732 56.8913 144.865 56.8913C142.596 56.8913 140.373 56.0882 139.246 54.9223L139.254 54.9146Z" fill="#4C565D" />
  <path d="M164 55.3702V56.7524H153.302V41.6184H163.676V43.0005H154.9V48.3824H162.726V49.7413H154.9V55.3625H164V55.3702Z" fill="#4C565D" />
  <path d="M106.835 64.1572H107.638V71.037H111.875V71.7319H106.835V64.1572Z" fill="#4C565D" />
  <path d="M118.182 69.7089H113.967L113.056 71.7319H112.223L115.681 64.1572H116.468L119.926 71.7319H119.085L118.174 69.7089H118.182ZM117.888 69.0603L116.074 64.9911L114.26 69.0603H117.896H117.888Z" fill="#4C565D" />
  <path d="M131.396 64.1572L128.841 71.7319H128L125.785 65.2768L123.554 71.7319H122.72L120.165 64.1572H120.983L123.168 70.6664L125.429 64.1572H126.178L128.409 70.6973L130.624 64.1572H131.388H131.396Z" fill="#4C565D" />
  <path d="M137.077 64.8522V67.8249H140.99V68.5198H137.077V71.7319H136.274V64.1572H141.461V64.8522H137.069H137.077Z" fill="#4C565D" />
  <path d="M143.337 64.1572H144.14V71.7319H143.337V64.1572Z" fill="#4C565D" />
  <path d="M151.982 71.7319L150.253 69.2997C150.06 69.3228 149.867 69.3306 149.651 69.3306H147.621V71.7319H146.818V64.1572H149.651C151.573 64.1572 152.746 65.1301 152.746 66.7516C152.746 67.9407 152.121 68.7746 151.017 69.1298L152.87 71.7242H151.997L151.982 71.7319ZM151.936 66.7593C151.936 65.5471 151.133 64.8522 149.62 64.8522H147.605V68.6511H149.62C151.133 68.6511 151.936 67.9484 151.936 66.7593Z" fill="#4C565D" />
  <path d="M162.703 64.1572V71.7319H161.939V65.6783L158.967 70.7745H158.589L155.617 65.717V71.7396H154.853V64.1649H155.509L158.798 69.7784L162.055 64.1649H162.711L162.703 64.1572Z" fill="#4C565D" />
</svg>
